icon-svg/umage-acorn.svg

<svg xmlns="http://www.w3.org/2000/svg" fill="#44739e" viewBox="0 0 24 24"><path d="M11.636 12.574v5.184h.157v-5.262h-.157zm-.219-1.881h.58v1.724h-.58zm1.15 2.362h.157v4.703h-.157zm-.394 0h.157v4.703h-.157zm-.992 0h.157v4.703h-.157zm-.404 0h.157v4.703h-.157zm8.271-4.613c1.029.036.57-2 .531-2.439a2.9 2.9 0 0 0-1.331-2.317c-1.717-1.047-1.962-1-6.512-1.413-4.615.42-4.854.339-6.579 1.392a2.9 2.9 0 0 0-1.331 2.317c-.039.436-.5 2.478.533 2.439l.044.026a3.026 3.026 0 0 0-.52 1.785c.06 1.479.114 4.713.253 6.155.293 1.476.718 3.272 2.017 4.207a6.39 6.39 0 0 0 1.969.824h.006l1.631.228a22.66 22.66 0 0 0 5.8-.3 5.13 5.13 0 0 0 1.976-1.046 5.383 5.383 0 0 0 1.674-3.7c.025-.145.164-1.2.168-1.347l.173-5.039a3 3 0 0 0-.522-1.764ZM4.239 8.209c-.21-.139.473-.28.739-.38A14.5 14.5 0 0 1 6.969 7.5c.663-.082 4.464-.149 4.723-.123h-.031c.269-.008 4.087.066 4.775.144.15.019 2.483.25 2.766.671l-.035.04c-2.055-.9-5.674-.653-7.506-.745h.031c-1.827.053-5.406-.168-7.453.722m14.629.191-.031.026c-.056-.009.018-.02.031-.026m-9.525 5.95a18.9 18.9 0 0 1 .3-3.876v-.016c.321.059 3.766.056 4.105 0 .35.865.293 3.813.382 5.144-.051 1.434.156 3.386-1.219 4.063a3.38 3.38 0 0 1-2.781-.2c-1.081-1.187-.77-3.447-.787-5.115m9.887-4.14c-.048.879-.112 5.729-.32 6.483l-.121.594a4.381 4.381 0 0 1-2.989 3.689l-.792.216a17.87 17.87 0 0 1-3.856.256 12.25 12.25 0 0 1-3.959-.548c-.04-.023-.714-.369-.727-.379s-.6-.579-.608-.586c-.925-.845-1.121-2.463-1.41-3.617-.129-1.485-.186-4.582-.245-6.1a2.756 2.756 0 0 1 .588-1.781c.148 0 .011-.023-.03-.048-.079-.047-.164-.191-.229-.043.143-.361 2.663-.576 2.733-.58-.26.007-2.776.493-1.659.721 1.288.124 2.382-.14 3.265.343a2.4 2.4 0 0 1 .593 1.442 3.94 3.94 0 0 0-.3 1.465c-.033 1.675-.206 3.985-.063 5.494.1 2.167.976 3.057 2.719 2.977 2.124-.042 2.55-1.493 2.56-3.813.042-.656-.1-3.5-.138-4.666A5.4 5.4 0 0 0 14 10.377l-.041-.08c.193-1.95 1.252-1.755 3.127-1.767-.042-.038.943.055 1.032-.178-.115-.26-1.3-.475-1.666-.538a9.83 9.83 0 0 1 2.341.447c-.014.023-.2.131-.173.169-.053.021-.091.028.018.031a2.69 2.69 0 0 1 .592 1.749"/></svg>

<?xml version="1.0" encoding="UTF-8"?>
<svg width="24px" fill="#44739e" height="24px" viewBox="0 0 24 24" version="1.1" xmlns="http://www.w3.org/2000/svg" xmlns:xlink="http://www.w3.org/1999/xlink">
            <path d="m 11.636,12.574 v 5.184 h 0.157 v -5.184 -0.078 h -0.157 z m -0.219,-1.881 h 0.58 v 1.724 h -0.58 z m 1.15,2.362 h 0.157 v 4.703 h -0.157 z m -0.394,0 h 0.157 v 4.703 h -0.157 z m -0.992,0 h 0.157 v 4.703 h -0.157 z m -0.404,0 h 0.157 v 4.703 h -0.157 z m 8.271,-4.613 c 1.029,0.036 0.57,-2 0.531,-2.439 A 2.9,2.9 0 0 0 18.248,3.686 C 16.531,2.639 16.286,2.686 11.736,2.273 7.121,2.693 6.882,2.612 5.157,3.665 A 2.9,2.9 0 0 0 3.826,5.982 C 3.787,6.418 3.326,8.46 4.359,8.421 l 0.044,0.026 a 3.026,3.026 0 0 0 -0.52,1.785 c 0.06,1.479 0.114,4.713 0.253,6.155 0.293,1.476 0.718,3.272 2.017,4.207 v 0 a 6.385,6.385 0 0 0 1.969,0.824 h 0.006 l 1.631,0.228 a 22.655,22.655 0 0 0 5.8,-0.3 5.131,5.131 0 0 0 1.976,-1.046 5.383,5.383 0 0 0 1.674,-3.7 c 0.025,-0.145 0.164,-1.2 0.168,-1.347 L 19.55,10.214 A 3,3 0 0 0 19.028,8.45 Z M 4.239,8.209 C 4.029,8.07 4.712,7.929 4.978,7.829 A 14.48,14.48 0 0 1 6.969,7.5 C 7.632,7.418 11.433,7.351 11.692,7.377 h -0.031 c 0.269,-0.008 4.087,0.066 4.775,0.144 0.15,0.019 2.483,0.25 2.766,0.671 l -0.035,0.04 C 17.112,7.332 13.493,7.579 11.661,7.487 h 0.031 C 9.865,7.54 6.286,7.319 4.239,8.209 Z M 18.868,8.4 18.837,8.426 C 18.781,8.417 18.855,8.406 18.868,8.4 Z m -9.525,5.95 a 18.915,18.915 0 0 1 0.3,-3.876 v -0.016 c 0.321,0.059 3.766,0.056 4.105,0 0.35,0.865 0.293,3.813 0.382,5.144 -0.051,1.434 0.156,3.386 -1.219,4.063 a 3.381,3.381 0 0 1 -2.781,-0.2 C 9.049,18.278 9.36,16.018 9.343,14.35 Z m 9.887,-4.14 c -0.048,0.879 -0.112,5.729 -0.32,6.483 l -0.121,0.594 A 4.381,4.381 0 0 1 15.8,20.976 l -0.792,0.216 A 17.87,17.87 0 0 1 11.152,21.448 12.252,12.252 0 0 1 7.193,20.9 C 7.153,20.877 6.479,20.531 6.466,20.521 6.453,20.511 5.866,19.942 5.858,19.935 4.933,19.09 4.737,17.472 4.448,16.318 4.319,14.833 4.262,11.736 4.203,10.218 A 2.756,2.756 0 0 1 4.791,8.437 C 4.939,8.437 4.802,8.414 4.761,8.389 4.682,8.342 4.597,8.198 4.532,8.346 4.675,7.985 7.195,7.77 7.265,7.766 7.005,7.773 4.489,8.259 5.606,8.487 6.894,8.611 7.988,8.347 8.871,8.83 a 2.4,2.4 0 0 1 0.593,1.442 3.935,3.935 0 0 0 -0.3,1.465 c -0.033,1.675 -0.206,3.985 -0.063,5.494 0.1,2.167 0.976,3.057 2.719,2.977 2.124,-0.042 2.55,-1.493 2.56,-3.813 0.042,-0.656 -0.1,-3.5 -0.138,-4.666 A 5.408,5.408 0 0 0 14,10.377 l -0.041,-0.08 c 0.193,-1.95 1.252,-1.755 3.127,-1.767 -0.042,-0.038 0.943,0.055 1.032,-0.178 -0.115,-0.26 -1.3,-0.475 -1.666,-0.538 a 9.827,9.827 0 0 1 2.341,0.447 c -0.014,0.023 -0.2,0.131 -0.173,0.169 -0.053,0.021 -0.091,0.028 0.018,0.031 a 2.69,2.69 0 0 1 0.592,1.749 z"/>

</svg>
